X:1
T:A minor Samuel Babcock, 1803
T:Samuel Medley, 1785 Resignation           88. 88. (L. M.)
T:Rama
T:Transcribed from The Middlesex Harmony, 1803.
%%score [ 1 2 3 4 ]
L:1/8
Q:1/4=120
M:4/4
K:C
V:1 treble nm="Tr." snm="Tr."
V:2 treble nm="C." snm="C."
V:3 treble-8 nm="T." snm="T."
V:4 bass nm="B." snm="B."
V:1
 A4 e2 ed | c2 B2 cB AG | A6 e2 | e2 cd e2 f2 | e6 d>c |{c} B8 |: ^G4 G2 G2 | A2 e2 e2 dc | B6 e2 | %9
w: 1.~Dost thou my *|earth- ly com- * forts *|slay, And|take be- * lo- ved|ones a- *|way?|Yet will my|soul re- vere the *|rod, "Be|
w: 2.~Let me, thou *|sove- reign Lord * of *|all, Low|at thy * foot- stool|hum- bly *|fall,|Amd, while I|feel af- flic- tion's *|rod, "Be|
 e2 cd e2 dc |{c} B6 B2 | A8 :| %12
w: still, and * know that *|thou art|God."|
w: still, and * know that *|thou art|God."|
V:2
 E4 E2 E2 | E2 E2 E2 E2 | E6 E2 | G2 G2 G2 G2 | G6 A2 | E8 |: E4 E2 E2 | E2 E2 E2 G2 | G6 E2 | %9
w: 3.~Then be my|tri- als great or|small, There's|sure a need be|for them|all;|Thus then thy|dea- lings I'll ap-|plaud, "Be|
w: 4.~Let me not|mur- mur or re-|pine, Un-|der these try- ing|strokes of|thine'|But, while I|walk the mourn- ful|road, "Be|
 G2 G2 G2 F2 | E6 E2 | E8 :| %12
w: still, and know that|thou art|God."|
w: still, and know that|thou art|God."|
V:3
 A4 c2 cd | e2 g2 ed cB | A6 B2 | c2 ed c2 A2 | G6 F2 | E8 |: B4 B2 B2 | c2 B2 c2 d2 | e6 B2 | %9
w: 5.~Thy love you'll *|make in heav'n * ap- *|pear, In|all I've * borne or|suf- fered|here;|Let me, till|brought to that a-|bode, "Be|
w: 6.~Then, when my *|hap- py soul * shall *|rise To|joys and * Je- sus|in the|skies,|I shall, as|ran- somed by his|blood, For-|
 c2 ed c2 A2 | ^G6 G2 | A8 :| %12
w: still, and * know that|thou art|God."|
w: ev- er * sing, "Thou|art my|God."|
V:4
 A,4 A,2 A,2 | A,2 E,D, C,D, E,2 | A,,6 E,2 | C,2 C,2 C,2 C,2 | C,6 D,2 | E,8 |: E,4 E,2 E,2 | %7
 A,2 ^G,2 A,2 B,2 | E,6 E,2 | C,2 C,2 C,2 D,2 | E,6 E,2 | A,,8 :| %12

